svg/24/panel-right.svg

<svg width="24" height="24" viewBox="0 0 24 24" fill="currentColor" xmlns="http://www.w3.org/2000/svg"><path fill-rule="evenodd" clip-rule="evenodd" d="M22 6C22 4.89543 21.1046 4 20 4H4C2.89543 4 2 4.89543 2 6V18C2 19.1046 2.89543 20 4 20H20C21.1046 20 22 19.1046 22 18V6ZM14 5.5H4C3.72386 5.5 3.5 5.72386 3.5 6V18C3.5 18.2761 3.72386 18.5 4 18.5H14V5.5ZM15.5 5.5H20C20.2761 5.5 20.5 5.72386 20.5 6V18C20.5 18.2761 20.2761 18.5 20 18.5H15.5V5.5Z"/></svg>

<svg xmlns="http://www.w3.org/2000/svg" width="24" height="24" fill="currentColor" viewBox="0 0 24 24">
  <path fill-rule="evenodd" d="M22 6a2 2 0 0 0-2-2H4a2 2 0 0 0-2 2v12a2 2 0 0 0 2 2h16a2 2 0 0 0 2-2V6Zm-8-.5H4a.5.5 0 0 0-.5.5v12a.5.5 0 0 0 .5.5h10v-13Zm1.5 0H20a.5.5 0 0 1 .5.5v12a.5.5 0 0 1-.5.5h-4.5v-13Z" clip-rule="evenodd"/>
</svg>
